X: 31
T: Acemkürdî Peşrev
C: İsmail Hakkı Bey
O: Turkey
F: http://compmusic.upf.edu/node/140
N: acemkurdi--pesrev--fahte----muallim_ismail_hakki_bey
N: makam= acemkurdi
N: form= pesrev
N: usul= fahte = 20/4
M: 20/4
L: 1/16
K: C _B   
Q: 1/4=72
%%MIDI tuningsystem comma53
A2z2 A2f2 f6e2  | fgf2 g2a2 gag2 f4  | \
w:  1. HANE  |   | 
a3g f2e2 g3f e2d2  | 
w:   | 
e2df e2d2 cdcB A2B2  | c2d_e d2c2 BcB2 A4  | \
w:   |   | 
z4 A2A2 A4 a4  | 
w:   | 
bc'ba b2c'2 b2c'2 b2a2  | baga g2b2 a2g2 f2e2  | \
w:   |   | 
{g}f4 g2a2 g4 a4  | 
w:   | 
bag2 c'2ba a4 z4  | a2ab a2b2 c'd'c'2 b2a2  | \
w:   |   | 
a2b2 a2g2 a3/2b/ag f4  | 
w:   | 
a3/2b/ag f2a2 g3/2a/gf e2d2  | c4 d2e2 f4 g2a2  | \
w:   |   | 
g3/2a/gf eagf f4 z4  | 
w:   | 
e2f4{g}f{g}e e3/2f/e{f}d d3c  | c2{f}ef e2d2 cdcB A4  | \
w:  TESLİM  |   | 
A4 c2B2 ABAG A2B2  | 
w:   | 
c2d4c2 B3A G2A2  | G2c4BA A4 z4  | a4 a2a2 a4 b2c'2  | \
w:   |   |  2. HANE  | 
b4 a2b2 c'2b2 a2g2  | 
w:   | 
a4 g2a2 g4 f4  | g2a2 g2f2 g4 a4  | a2c'4ba a4 z4  | \
w:   |   |   | 
a2b2 a2c'2 c'bba b4  | 
w:   | 
g2a2 g2b2 baag a4  | f2a2 g2a2 g3/2a/gf e2d2  | \
w:   |   | 
c4 d2e2 f4 g2a2  | 
w:   | 
g3/2a/gf eagf f4 z4  | e2f4{g}f{g}e e3/2f/e{f}d d3c  | \
w:   |  TESLİM  | 
c2{f}ef e2d2 cdcB A4  | 
w:   | 
A4 c2B2 ABAG A2B2  | c2d4c2 B3A G2A2  | \
w:   |   | 
G2c4BA A4 z4  | 
w:   | 
c'4 c'2_3/4d'2 c'4 _3/4b4  | c'2_3/4d'2 c'2_2/4b2 c'4 {d'}c'2b2  | \
w:  3. HANE  |   | 
a4 a2_3/4b2 g4 a2_7/8b2  | a4 _3/4b4 c'2_7/8d'2 c'2b2  | 
w:   |   | 
a2g2 a2_2/4b2 c'4 z4  | c'4 _3/4d'2c'2 _2/4bc'ba b4  | \
w:   |   | 
_2/4b4 c'2_3/4b2 a_ba^3/4g a4  | 
w:   | 
a4 a2_3/4b2 a4 g2^3/4f2  | g4 a2_2/4b2 c'4 _3/4d'2c'2  | \
w:   |   | 
_3/4b4 c'2b2 a4 z4  | c'3_7/8b a2c'2 c'_bba b4  | 
w:   |   | 
bc'ba g2a2 g2a2 g2f2  | _7/8a4 g2f2 e3_3/4d c4  | \
w:   |   | 
c4 _3/4d2e2 f4 g2a2  | 
w:   | 
g3f eagf f4 z4  | e2f4{g}f{g}e e3/2f/e{f}d d3c  | \
w:   |  TESLİM  | 
c2{f}ef e2d2 cdcB A4  | 
w:   | 
A4 c2B2 ABAG A2B2  | c2d4c2 B3A G2A2  | \
w:   |   | 
G2c4BA A4 z4  | 
w:   | 
d4 d2^3/4c2 d4 e2f2  | e4 d2e2 f2g2 a4  | \
w:  4. HANE  |   | 
b3a g2a2 g2a2 g2f2  | g2{b}ab a2g2 f4 e4  | 
w:   |   | 
f3e d2^c2 d4 z4  | g3f e2f2 e2f2 e2d2  | \
w:   |   | 
d2e2 d2c2 c2d2 c2B2  | 
w:   | 
B2B2 A2G2 F4 G2A2  | G2F4E2 F3E D4  | \
w:   |   | 
F3E D2^C2 D4 z4  | d4 d2c2 d4 efed  | 
w:   |   | 
c4 d2e2 f4 g2a2  | g4 a4 g2ab a2g2  | \
w:   |   | 
f3e d2a2 g3/2a/gf e2f2  | 
w:   | 
e2f2 gagf f4 z4  | e2f4{g}f{g}e e3/2f/e{f}d d3c  | \
w:   |  TESLİM  | 
c2{f}ef e2d2 cdcB A4  | 
w:   | 
A4 c2B2 ABAG A2B2  | c2d4c2 B3A G2A2  | \
w:   |   | 
G2c4BA A4 z4  | 
w:   | 
|


